X: 35238
T: Roscommon
R: polka
M: 2/4
K: Gmajor
|:(3D/E/F/|GB d2|ga/g/ fe|D/F/A A2|cd/c/ BA|
GB d2|ga/g/ fe|fA Ac/A/|BG G:|
|:a|b/g/d/g/ b/g/d/g/|ba ab|a/f/d/f/ a/f/d/f/|ag ga|
b/a/g/a/ b/a/g/a/|ba a2|1 af d/e/f/g/|a/g/f/a/ g:|2 ag f2|g/a/b/a/ g/e/d/B||

